X: 1
T: PRINCESS ROYAL
S: BC
O: Adderbury
P: A.(AB2)4 for Set Dance
B: Morris Ring
Z: 2005 John Chambers <jc@trillian.mit.edu>
M: 4/4
L: 1/8
K: Dm
P: A
A>G | F2 E2 D2 A>G | F2 E2 D4    | d2 c2 B2 d2 | c2 B2   A3 c  |
      B2 A2 G2 F2  | E2 D2 C2 c2 | A2 GF G2 E2 | [F4D4] [F4D4] ||
P: B
  c2 c2 c2 de | f2 F2 F3  F | B2 A2 G2 F2 | E2 D2   C4    |
  F2 F2 G3  G | A2 A2 B4    | f2 F2 B4    | d2 F2   B4    |
  B2 A2 G2 F2 | E2 D2 C2 c2 | A2 GF G2 E2 | [F4D4] [F4D4] ||
P: alt. bars 6A and 10B:-
  | EFDE C2c2 |
